X:1660
T:"Sault's Own Hornpipe"          1660
C:after Mr. Gillan
B:O'Neill's Music Of Ireland (The 1850) Lyon & Healy, Chicago, 1903 edition
Z:FROM O'NEILL'S TO NOTEWORTHY, FROM NOTEWORTHY TO ABC, MIDI AND .TXT BY VINCE
BRENNAN July 2003 (HTTP://WWW.SOSYOURMOM.COM)
I:abc2nwc
M:C|
L:1/8
K:G
d3/2c/2|B3/2G/2B3/2d/2 g3/2b/2 (3(agf)|g zG zD zG, z|c3/2B/2c3/2d/2 e3/2f/2g3/2f/2|e3/2d/2c3/2B/2 A2d3/2c/2|
d2B3/2G/2B3/2d/2 g3/2b/2 (3(agf)|g3/2b/2 (3(agf) g2d3/2c/2|B3/2d/2g3/2d/2 e3/2c/2A3/2F/2|G2B2G2:|
|:B3/2c/2|d3/2g/2g3/2a/2 g2f3/2g/2|d3/2g/2 (3(gag) d3/2g/2 (3(gag)|d3/2g/2b3/2g/2 a2g3/2a/2|e3/2a/2 (3(aba) e3/2a/2 (3(aba)|
d3/2g/2g3/2a/2 g2f3/2g/2|eggg dgga|b3/2g/2a3/2f/2 g3/2d/2e3/2c/2|B3/2G/2A3/2F/2 G2:|


